assets/images/icons/detail-feature-05.svg

<svg width="16" height="16" viewBox="0 0 16 16" fill="none" xmlns="http://www.w3.org/2000/svg">
<g id="fi_159604">
<g id="Group">
<path id="Vector" d="M8 3.2312C4.94303 3.2312 2.17081 4.9037 0.125192 7.62028C-0.0417306 7.84284 -0.0417306 8.15378 0.125192 8.37634C2.17081 11.0962 4.94303 12.7687 8 12.7687C11.057 12.7687 13.8292 11.0962 15.8748 8.37961C16.0417 8.15705 16.0417 7.84611 15.8748 7.62355C13.8292 4.9037 11.057 3.2312 8 3.2312ZM8.21929 11.358C6.19004 11.4857 4.51427 9.81318 4.64191 7.78065C4.74665 6.10488 6.10494 4.74659 7.78071 4.64186C9.80996 4.51421 11.4857 6.18671 11.3581 8.21923C11.2501 9.89173 9.89179 11.25 8.21929 11.358ZM8.11783 9.80663C7.02465 9.87537 6.1213 8.9753 6.19331 7.88212C6.24895 6.97877 6.9821 6.2489 7.88545 6.18998C8.97862 6.12125 9.88197 7.02132 9.80996 8.1145C9.75105 9.02112 9.0179 9.75099 8.11783 9.80663Z" fill="#7FB51F"/>
</g>
</g>
</svg>

<svg xmlns="http://www.w3.org/2000/svg" width="16" height="16" fill="none"><path fill="#7FB51F" d="M8 3.231c-3.057 0-5.83 1.673-7.875 4.39a.63.63 0 0 0 0 .755C2.171 11.096 4.943 12.77 8 12.77s5.83-1.673 7.875-4.39a.63.63 0 0 0 0-.755C13.829 4.904 11.057 3.23 8 3.23m.22 8.127A3.367 3.367 0 0 1 4.642 7.78 3.37 3.37 0 0 1 7.78 4.64a3.367 3.367 0 0 1 3.577 3.578 3.38 3.38 0 0 1-3.139 3.139m-.102-1.551a1.81 1.81 0 0 1-1.925-1.925A1.82 1.82 0 0 1 7.885 6.19 1.81 1.81 0 0 1 9.81 8.114a1.82 1.82 0 0 1-1.692 1.693"/></svg>
